X:23031
T:Water is Wide, The
T:Oh, Waly, Waly
R:Air
C:Trad.
O:Scotland
Z:Paul Hardy's Session Tunebook 2022 (see www.paulhardy.net). Creative Commons cc by-nc-sa licenced.
M:4/4
L:1/8
Q:1/4=130
K:G
"D"D2 GG A2|"G"B8-|"C"B2AA G2 E2|"G"D8-|D2zD GGF2|"Em"G8-|G2 GA B2 cB|"D"A8-|
"D"A2zA B2c2|"Bm"d8-|d2 cB A2 G2|"Em"B8-|"C"B2 A2 G2E2|"D7"D8-|D2zD "C"E2 G2|"G"G8-|G2|]

